symbols/web/play_for_work/materialsymbolsoutlined/play_for_work_wght200grad200_40px.svg

<svg xmlns="http://www.w3.org/2000/svg" height="40" width="40"><path d="M20 32.375q-3.792 0-6.479-2.604-2.688-2.604-2.688-6.396h2.125q0 2.917 2.063 4.896Q17.083 30.25 20 30.25q2.917 0 4.979-1.979 2.063-1.979 2.063-4.896h2.125q0 3.792-2.688 6.396-2.687 2.604-6.479 2.604Zm-.042-8.083-6.083-6.125 1.5-1.5 3.5 3.541V8.542H21v11.666l3.542-3.541 1.5 1.5Z"/></svg>

<svg xmlns="http://www.w3.org/2000/svg" height="40" width="40"><path d="M20 32.375Q16.208 32.375 13.521 29.771Q10.833 27.167 10.833 23.375H12.958Q12.958 26.292 15.021 28.271Q17.083 30.25 20 30.25Q22.917 30.25 24.979 28.271Q27.042 26.292 27.042 23.375H29.167Q29.167 27.167 26.479 29.771Q23.792 32.375 20 32.375ZM19.958 24.292 13.875 18.167 15.375 16.667 18.875 20.208V8.542H21V20.208L24.542 16.667L26.042 18.167Z"/></svg>
